X:1
T:Enfield Common
T:Enfield Common
T:Purcell
C:Purcell
L:1/8
M:3/2
K:C
V:1 treble 
V:1
 c2 d2 | B2 | c2 A4 | e2 f2 | d2 e2 | c4 | e2 d2 | B2 c2 | A2 B2 | E2 A2 | ^G2 A2 | A,4 | c2 d2 | %13
 B2 c2 | A4 | e2 f2 | d2 e2 | c4 | e2 d2 | B2 c2 | A2 B2 | E2 A2 | ^G2 A2 | A,4 | B2 c2 | A2 | %26
 d2 B4 | G2 B2 | G2 c2 | G4 | E2 G2 | E2 A2 | F2 D2 | d2 G2 | B2 c2 | C4 | c2 E2 | G2 ^F2 | A4 | %39
 d2 F2 | A2 ^G2 | B4 | e2 B2 | d2 c2 | A2 B2 | E2 A2 | ^G2 A2 | A,4 | B2 c2 | A2 d2 | B4 | G2 B2 | %52
 G2 c2 | G4 | E2 G2 | E2 A2 | F2 D2 | d2 G2 | B2 c2 | C4 | c2 E2 | G2 ^F2 | A4 | d2 F2 | A2 ^G2 | %65
 B4 | e2 B2 | d2 c2 | A2 B2 | E2 A2 | ^G2 A2 | A,4 || %72

